dist/assets/symbols/cart.svg

<svg viewBox="0 0 20 20" fill="none" xmlns="http://www.w3.org/2000/svg">
<path d="M4.28568 2C4.63339 2 4.93294 2.23458 5.02135 2.56361L5.03896 2.64775L5.4026 5.04528L17.2379 5.04514C17.6946 5.04514 18.0414 5.44159 17.996 5.88311L17.9816 5.97192L16.4612 12.8309C16.3903 13.1507 16.1245 13.3859 15.8055 13.4229L15.7174 13.428H5.78639C5.43866 13.428 5.13912 13.1935 5.0507 12.8644L5.03309 12.7802L3.63121 3.52379H2V2H4.28568ZM5.80945 16.4759C5.80945 17.3175 6.49167 17.9996 7.33323 17.9996C8.17479 17.9996 8.85702 17.3175 8.85702 16.4759C8.85702 15.6343 8.17479 14.9522 7.33323 14.9522C6.49167 14.9522 5.80945 15.6343 5.80945 16.4759ZM12.6665 16.4759C12.6665 17.3175 13.3487 17.9996 14.1903 17.9996C15.0318 17.9996 15.714 17.3175 15.714 16.4759C15.714 15.6343 15.0318 14.9522 14.1903 14.9522C13.3487 14.9522 12.6665 15.6343 12.6665 16.4759ZM5.63343 6.56907L6.4418 11.9046H15.1068L16.2892 6.56907H5.63343Z" fill="currentColor" />
</svg>

<svg xmlns="http://www.w3.org/2000/svg" fill="none" viewBox="0 0 20 20"><path fill="currentColor" d="M4.286 2c.347 0 .647.235.735.564l.018.084.364 2.397h11.835c.457 0 .803.397.758.838l-.014.089-1.52 6.859a.762.762 0 0 1-.656.592l-.089.005h-9.93a.762.762 0 0 1-.736-.564l-.018-.084-1.402-9.256H2V2h2.286Zm1.523 14.476a1.524 1.524 0 1 0 3.048 0 1.524 1.524 0 0 0-3.048 0Zm6.857 0a1.524 1.524 0 1 0 3.048 0 1.524 1.524 0 0 0-3.048 0ZM5.633 6.569l.809 5.336h8.665l1.182-5.336H5.633Z"/></svg>
